img/icons/sprite/icon-bicycle.svg

<svg width="25" height="24" viewBox="0 0 25 24" xmlns="http://www.w3.org/2000/svg">
  <path
    d="M18.3075 21C17.4664 21 16.6442 20.7471 15.9449 20.2732C15.2456 19.7994 14.7005 19.1258 14.3786 18.3378C14.0568 17.5498 13.9726 16.6827 14.1366 15.8462C14.3007 15.0096 14.7057 14.2412 15.3005 13.6381C15.8952 13.035 16.6529 12.6243 17.4779 12.4579C18.3028 12.2915 19.1578 12.3769 19.9349 12.7033C20.7119 13.0297 21.3761 13.5824 21.8434 14.2916C22.3106 15.0008 22.5601 15.8346 22.5601 16.6875C22.5588 17.8309 22.1104 18.927 21.3132 19.7355C20.5159 20.544 19.435 20.9988 18.3075 21ZM18.3075 13.875C17.759 13.875 17.2228 14.04 16.7667 14.349C16.3106 14.658 15.9551 15.0973 15.7452 15.6112C15.5353 16.1251 15.4804 16.6906 15.5874 17.2362C15.6944 17.7818 15.9585 18.2829 16.3464 18.6762C16.7343 19.0696 17.2284 19.3374 17.7664 19.446C18.3044 19.5545 18.8621 19.4988 19.3688 19.2859C19.8756 19.073 20.3088 18.7126 20.6135 18.25C20.9182 17.7875 21.0809 17.2438 21.0809 16.6875C21.08 15.9418 20.7876 15.227 20.2676 14.6997C19.7477 14.1725 19.0428 13.8759 18.3075 13.875Z" />
  <path
    d="M6.10449 21C5.26342 21 4.44123 20.7471 3.7419 20.2732C3.04257 19.7994 2.4975 19.1258 2.17564 18.3378C1.85377 17.5498 1.76956 16.6827 1.93364 15.8462C2.09773 15.0096 2.50275 14.2412 3.09748 13.6381C3.69221 13.035 4.44994 12.6243 5.27486 12.4579C6.09978 12.2915 6.95482 12.3769 7.73188 12.7033C8.50893 13.0297 9.17309 13.5824 9.64037 14.2916C10.1076 15.0008 10.3571 15.8346 10.3571 16.6875C10.3558 17.8309 9.9074 18.927 9.11016 19.7355C8.31291 20.544 7.23197 20.9988 6.10449 21ZM6.10449 13.875C5.55596 13.875 5.01975 14.04 4.56367 14.349C4.10758 14.658 3.75211 15.0973 3.5422 15.6112C3.33228 16.1251 3.27736 16.6906 3.38437 17.2362C3.49139 17.7818 3.75553 18.2829 4.1434 18.6762C4.53126 19.0696 5.02544 19.3374 5.56343 19.446C6.10142 19.5545 6.65906 19.4988 7.16583 19.2859C7.67261 19.073 8.10575 18.7126 8.4105 18.25C8.71525 17.7875 8.8779 17.2438 8.8779 16.6875C8.87705 15.9418 8.58458 15.227 8.06465 14.6997C7.54472 14.1725 6.83979 13.8759 6.10449 13.875Z" />
  <path
    d="M15.1644 6.00005C15.3592 6.00073 15.5522 5.96225 15.7323 5.88681C15.9123 5.81138 16.0759 5.7005 16.2134 5.56058C16.351 5.42065 16.4598 5.25447 16.5336 5.07163C16.6074 4.88879 16.6448 4.69293 16.6435 4.49536C16.6457 4.29878 16.6092 4.10374 16.5361 3.92164C16.4631 3.73954 16.3549 3.57403 16.2181 3.4348C16.0812 3.29558 15.9183 3.18542 15.739 3.11077C15.5597 3.03612 15.3675 2.99848 15.1736 3.00005C14.9794 2.99943 14.7869 3.03762 14.6072 3.11243C14.4275 3.18725 14.2641 3.29722 14.1263 3.43607C13.9885 3.57493 13.8791 3.73994 13.8042 3.92169C13.7293 4.10344 13.6904 4.29838 13.6898 4.49536C13.6892 4.69234 13.7269 4.88752 13.8007 5.06974C13.8744 5.25197 13.9829 5.41767 14.1198 5.55739C14.2567 5.69712 14.4194 5.80812 14.5987 5.88407C14.7779 5.96002 14.9701 5.99943 15.1644 6.00005Z" />
  <path
    d="M17.3622 9.00003H15.3395C15.3063 9.00004 15.2737 8.99099 15.2452 8.97384C15.2167 8.95668 15.1932 8.93205 15.1773 8.90253L13.7101 6.17581C13.6068 5.97318 13.4578 5.79807 13.2753 5.66467C13.0928 5.53127 12.8818 5.44333 12.6596 5.40795C12.4373 5.37258 12.21 5.39077 11.996 5.46106C11.7819 5.53135 11.5872 5.65175 11.4276 5.81253L8.19843 9.11253C7.92715 9.39333 7.77316 9.76945 7.76855 10.1625C7.76855 10.9782 8.35097 11.2688 8.62369 11.4328C9.94106 12.2025 10.8688 12.7655 11.3777 13.0782C11.4047 13.0949 11.4271 13.1183 11.4427 13.1463C11.4582 13.1743 11.4664 13.2059 11.4664 13.238V16.478C11.4664 16.8816 11.7724 17.228 12.1704 17.2482C12.2703 17.253 12.3702 17.2373 12.464 17.2019C12.5577 17.1666 12.6434 17.1123 12.7159 17.0423C12.7883 16.9724 12.8461 16.8883 12.8855 16.7951C12.925 16.7018 12.9455 16.6015 12.9456 16.5V12.4688C12.9457 12.3497 12.9178 12.2324 12.8642 12.1264C12.8107 12.0204 12.7331 11.9289 12.6377 11.8594L10.9275 10.6121C10.906 10.5965 10.8881 10.5764 10.8749 10.5532C10.8617 10.53 10.8536 10.5043 10.851 10.4776C10.8485 10.451 10.8516 10.4241 10.8602 10.3988C10.8687 10.3734 10.8825 10.3503 10.9007 10.3308L12.842 8.23128C12.862 8.20968 12.8866 8.19316 12.914 8.18307C12.9414 8.17297 12.9708 8.1696 12.9997 8.17321C13.0287 8.17682 13.0563 8.18731 13.0805 8.20384C13.1047 8.22037 13.1247 8.24246 13.1388 8.26831L14.1474 10.1143C14.2115 10.2313 14.3053 10.3288 14.4191 10.3966C14.5329 10.4644 14.6625 10.5001 14.7945 10.5H17.383C17.4832 10.5002 17.5824 10.4796 17.6745 10.4397C17.7667 10.3998 17.8498 10.3413 17.919 10.2678C17.9882 10.1942 18.0419 10.1073 18.0769 10.012C18.1119 9.91685 18.1274 9.81542 18.1226 9.71394C18.1032 9.31035 17.7602 9.00003 17.3622 9.00003Z" />
</svg>

<svg width="25" height="24" xmlns="http://www.w3.org/2000/svg"><path d="M18.308 21a4.21 4.21 0 01-2.363-.727 4.3 4.3 0 01-1.566-1.935 4.37 4.37 0 01-.242-2.492 4.331 4.331 0 011.163-2.208 4.234 4.234 0 012.178-1.18 4.198 4.198 0 012.457.245 4.27 4.27 0 011.908 1.589 4.357 4.357 0 01-.53 5.443A4.227 4.227 0 0118.308 21zm0-7.125c-.549 0-1.085.165-1.541.474a2.804 2.804 0 00-1.022 1.262 2.85 2.85 0 00-.158 1.625c.107.546.372 1.047.76 1.44a2.737 2.737 0 003.022.61c.507-.213.94-.573 1.244-1.036a2.84 2.84 0 00-.345-3.55 2.757 2.757 0 00-1.96-.825zM6.104 21a4.21 4.21 0 01-2.362-.727 4.3 4.3 0 01-1.566-1.935 4.369 4.369 0 01-.242-2.492 4.331 4.331 0 011.163-2.208 4.235 4.235 0 012.178-1.18 4.198 4.198 0 012.457.245 4.27 4.27 0 011.908 1.589 4.356 4.356 0 01-.53 5.443A4.227 4.227 0 016.104 21zm0-7.125c-.548 0-1.084.165-1.54.474a2.804 2.804 0 00-1.022 1.262 2.85 2.85 0 00-.158 1.625c.107.546.372 1.047.76 1.44a2.738 2.738 0 003.022.61c.507-.213.94-.573 1.245-1.036a2.84 2.84 0 00-.346-3.55 2.758 2.758 0 00-1.96-.825zM15.164 6a1.456 1.456 0 001.05-.44 1.495 1.495 0 00.43-1.065 1.495 1.495 0 00-.426-1.06 1.458 1.458 0 00-1.61-.323 1.478 1.478 0 00-.804.81 1.518 1.518 0 00.316 1.635A1.477 1.477 0 0015.164 6z"/><path d="M17.362 9H15.34a.183.183 0 01-.163-.097L13.71 6.176a1.447 1.447 0 00-.435-.511 1.422 1.422 0 00-1.279-.204 1.43 1.43 0 00-.568.352l-3.23 3.3c-.27.28-.425.656-.43 1.05 0 .815.583 1.106.856 1.27 1.317.77 2.245 1.332 2.754 1.645a.187.187 0 01.088.16v3.24c0 .404.306.75.704.77a.732.732 0 00.546-.206.75.75 0 00.23-.542v-4.031a.757.757 0 00-.308-.61l-1.71-1.247a.187.187 0 01-.077-.134.19.19 0 01.05-.147l1.941-2.1A.185.185 0 0113 8.173a.183.183 0 01.139.095l1.008 1.846a.745.745 0 00.647.386h2.589a.73.73 0 00.536-.232A.751.751 0 0017.362 9z"/></svg>
